X:1
T: Lochiel's awa' to France
C:
R:Strathspey
Q: 128
K:Am
M:4/4
L:1/16
|:ag|eA3 A3B e4 d2B2|A3G A2B2 g2d2 d2AG|eA3 A3B e4 d2B2|A3G A2B2 g2e2 e2ag|
eA3 A3B e4 d2B2|A3G A2B2 g2d2 d2AG|eA3 A3B e4 d2B2|A3G A2B2 g2e2 e2g2|
d3e g3a gab2 a3b|g2d2 edcB g3d d3e|d3e g3a gab2 a3b|g2e2 e2de g3e e3g|
d3e g3a gab2 a3b|g2d2 edcB g2d2 d2ga|bagb agea gede g3B|A3G A2B2 g2e2 e2:|
